public/img/header-logo.svg

<svg width="191" height="73" viewBox="0 0 191 73" fill="none" xmlns="http://www.w3.org/2000/svg">
<path d="M59.5903 46.3298C57.5903 46.3298 55.8003 45.8898 54.2103 44.9998C52.6303 44.1098 51.3803 42.8898 50.4703 41.3298C49.5603 39.7698 49.1003 37.9998 49.1003 36.0298C49.1003 34.0598 49.5603 32.2598 50.4703 30.7298C51.3803 29.1998 52.6203 27.9898 54.1903 27.0998C55.7603 26.2098 57.5603 25.7698 59.5903 25.7698C61.6203 25.7698 63.3803 26.2098 64.9703 27.0798C66.5503 27.9498 67.7903 29.1598 68.6903 30.7098C69.5903 32.2598 70.0403 34.0298 70.0403 36.0298C70.0403 38.0298 69.5903 39.7998 68.6903 41.3498C67.7903 42.8998 66.5503 44.1098 64.9703 44.9998C63.3903 45.8898 61.5903 46.3298 59.5903 46.3298ZM59.5903 43.1398C60.8803 43.1398 62.0403 42.8498 63.0703 42.2698C64.1003 41.6898 64.9003 40.8598 65.4803 39.7798C66.0603 38.6998 66.3503 37.4598 66.3503 36.0398C66.3503 34.6198 66.0603 33.3498 65.4803 32.2998C64.9003 31.2498 64.0903 30.4298 63.0703 29.8498C62.0403 29.2698 60.8803 28.9798 59.5903 28.9798C58.3003 28.9798 57.1503 29.2698 56.1303 29.8498C55.1203 30.4298 54.3103 31.2498 53.7003 32.2998C53.0903 33.3498 52.7903 34.5998 52.7903 36.0398C52.7903 37.4798 53.0903 38.7098 53.7003 39.7798C54.3103 40.8598 55.1203 41.6898 56.1303 42.2698C57.1403 42.8498 58.3003 43.1398 59.5903 43.1398Z" fill="white"/>
<path d="M76.3103 46.0998V25.9598H79.8103V31.4298L79.4703 30.0598C80.0303 28.6698 80.9603 27.5998 82.2803 26.8698C83.6003 26.1398 85.2203 25.7698 87.1403 25.7698V29.2998C86.9903 29.2798 86.8403 29.2598 86.7003 29.2598H86.3003C84.3503 29.2598 82.8003 29.8398 81.6603 31.0098C80.5203 32.1798 79.9503 33.8598 79.9503 36.0598V46.0898H76.3003L76.3103 46.0998Z" fill="white"/>
<path d="M101.01 45.2698C99.0604 45.2698 97.3204 44.8598 95.7804 44.0398C94.2404 43.2198 93.0304 42.0698 92.1304 40.5998C91.2304 39.1298 90.7804 37.4298 90.7804 35.5098C90.7804 33.5898 91.2304 31.8598 92.1304 30.3998C93.0304 28.9398 94.2504 27.8098 95.7804 26.9998C97.3104 26.1898 99.0504 25.7798 101.01 25.7798C102.73 25.7798 104.3 26.1298 105.72 26.8198C107.14 27.5198 108.27 28.5898 109.12 30.0298C109.97 31.4698 110.39 33.2998 110.39 35.4998C110.39 37.6998 109.97 39.4898 109.12 40.9298C108.27 42.3698 107.14 43.4598 105.72 44.1798C104.3 44.8998 102.73 45.2598 101.01 45.2598V45.2698ZM101.47 53.7098C99.6204 53.7098 97.8304 53.4498 96.0904 52.9298C94.3504 52.4098 92.9404 51.6698 91.8504 50.7098L93.6004 47.8998C94.5404 48.7098 95.6904 49.3498 97.0604 49.8198C98.4304 50.2898 99.8604 50.5198 101.35 50.5198C103.73 50.5198 105.48 49.9598 106.59 48.8498C107.7 47.7398 108.26 46.0398 108.26 43.7598V39.4998L108.64 35.5098L108.45 31.4798V25.9698H111.91V43.3698C111.91 46.9198 111.02 49.5298 109.25 51.1998C107.48 52.8698 104.88 53.7098 101.46 53.7098H101.47ZM101.43 42.0798C102.77 42.0798 103.96 41.7998 105 41.2398C106.04 40.6798 106.86 39.9098 107.45 38.9198C108.05 37.9298 108.34 36.7898 108.34 35.4998C108.34 34.2098 108.04 33.0698 107.45 32.0798C106.86 31.0898 106.04 30.3298 105 29.7798C103.96 29.2398 102.77 28.9598 101.43 28.9598C100.09 28.9598 98.8904 29.2298 97.8404 29.7798C96.7904 30.3198 95.9604 31.0898 95.3704 32.0798C94.7804 33.0698 94.4804 34.2098 94.4804 35.4998C94.4804 36.7898 94.7804 37.9298 95.3704 38.9198C95.9704 39.9098 96.7904 40.6798 97.8404 41.2398C98.8904 41.7998 100.09 42.0798 101.43 42.0798Z" fill="white"/>
<path d="M6.0803 14C6.3303 14.5 6.8403 14.82 7.4003 14.82C7.9603 14.82 8.4703 14.5 8.7203 14L14.6603 2.14C14.8903 1.68 14.8603 1.14 14.5903 0.7C14.3203 0.26 13.8403 0 13.3303 0H1.4803C0.970301 0 0.490301 0.27 0.220301 0.7C-0.0496993 1.14 -0.0696993 1.68 0.150301 2.14L6.0803 14ZM10.9403 2.96L7.4103 10.03L3.8803 2.96H10.9403ZM7.4103 43.48C9.3803 43.48 11.2603 42.7 12.6503 41.31C14.0403 39.92 14.8203 38.03 14.8203 36.07C14.8203 34.11 14.0403 32.22 12.6503 30.83C11.2603 29.44 9.3703 28.66 7.4103 28.66C5.4503 28.66 3.5603 29.44 2.1703 30.83C0.780301 32.22 0.000300889 34.11 0.000300889 36.07C0.000300889 38.03 0.780301 39.92 2.1703 41.31C3.5603 42.7 5.4403 43.48 7.4103 43.48ZM7.4103 31.62C8.5903 31.62 9.7203 32.09 10.5603 32.92C11.3903 33.75 11.8603 34.89 11.8603 36.07C11.8603 37.25 11.3903 38.38 10.5603 39.22C9.7303 40.05 8.5903 40.52 7.4103 40.52C6.2303 40.52 5.1003 40.05 4.2603 39.22C3.4303 38.39 2.9603 37.25 2.9603 36.07C2.9603 34.89 3.4303 33.76 4.2603 32.92C5.0903 32.09 6.2303 31.62 7.4103 31.62ZM1.4803 72.14H13.3403C14.1603 72.14 14.8203 71.48 14.8203 70.66V58.8C14.8203 57.98 14.1603 57.32 13.3403 57.32H1.4803C0.660301 57.32 0.000300889 57.98 0.000300889 58.8V70.66C0.000300889 71.48 0.660301 72.14 1.4803 72.14ZM2.9603 60.28H11.8603V69.18H2.9603V60.28ZM26.6803 63.25V37.55H18.2803C17.4603 37.55 16.8003 36.89 16.8003 36.07C16.8003 35.25 17.4603 34.59 18.2803 34.59H26.6803V8.89H18.2803C17.4603 8.89 16.8003 8.23 16.8003 7.41C16.8003 6.59 17.4603 5.93 18.2803 5.93H28.1603C28.9803 5.93 29.6403 6.59 29.6403 7.41V34.59H38.0403C38.8603 34.59 39.5203 35.25 39.5203 36.07C39.5203 36.89 38.8603 37.55 38.0403 37.55H29.6403V64.73C29.6403 65.55 28.9803 66.21 28.1603 66.21H18.2803C17.4603 66.21 16.8003 65.55 16.8003 64.73C16.8003 63.91 17.4603 63.25 18.2803 63.25H26.6803Z" fill="white"/>
</svg>

<?xml version="1.0" encoding="UTF-8" standalone="no"?>
<svg
   width="111.91"
   height="72.139999"
   viewBox="0 0 111.91 72.139999"
   fill="none"
   version="1.1"
   id="svg10"
   sodipodi:docname="header-logo.svg"
   inkscape:version="1.2.2 (732a01da63, 2022-12-09)"
   xmlns:inkscape="http://www.inkscape.org/namespaces/inkscape"
   xmlns:sodipodi="http://sodipodi.sourceforge.net/DTD/sodipodi-0.dtd"
   xmlns="http://www.w3.org/2000/svg"
   xmlns:svg="http://www.w3.org/2000/svg">
  <defs
     id="defs14" />
  <sodipodi:namedview
     id="namedview12"
     pagecolor="#ffffff"
     bordercolor="#666666"
     borderopacity="1.0"
     inkscape:showpageshadow="2"
     inkscape:pageopacity="0.0"
     inkscape:pagecheckerboard="0"
     inkscape:deskcolor="#d1d1d1"
     showgrid="false"
     inkscape:zoom="2.2731077"
     inkscape:cx="78.306894"
     inkscape:cy="40.0333"
     inkscape:window-width="1366"
     inkscape:window-height="705"
     inkscape:window-x="-8"
     inkscape:window-y="-8"
     inkscape:window-maximized="1"
     inkscape:current-layer="svg10" />
  <path
     d="m 59.5903,46.3298 c -2,0 -3.79,-0.44 -5.38,-1.33 -1.58,-0.89 -2.83,-2.11 -3.74,-3.67 -0.91,-1.56 -1.37,-3.33 -1.37,-5.3 0,-1.97 0.46,-3.77 1.37,-5.3 0.91,-1.53 2.15,-2.74 3.72,-3.63 1.57,-0.89 3.37,-1.33 5.4,-1.33 2.03,0 3.79,0.44 5.38,1.31 1.58,0.87 2.82,2.08 3.72,3.63 0.9,1.55 1.35,3.32 1.35,5.32 0,2 -0.45,3.77 -1.35,5.32 -0.9,1.55 -2.14,2.76 -3.72,3.65 -1.58,0.89 -3.38,1.33 -5.38,1.33 z m 0,-3.19 c 1.29,0 2.45,-0.29 3.48,-0.87 1.03,-0.58 1.83,-1.41 2.41,-2.49 0.58,-1.08 0.87,-2.32 0.87,-3.74 0,-1.42 -0.29,-2.69 -0.87,-3.74 -0.58,-1.05 -1.39,-1.87 -2.41,-2.45 -1.03,-0.58 -2.19,-0.87 -3.48,-0.87 -1.29,0 -2.44,0.29 -3.46,0.87 -1.01,0.58 -1.82,1.4 -2.43,2.45 -0.61,1.05 -0.91,2.3 -0.91,3.74 0,1.44 0.3,2.67 0.91,3.74 0.61,1.08 1.42,1.91 2.43,2.49 1.01,0.58 2.17,0.87 3.46,0.87 z"
     fill="#ffffff"
     id="path2" />
  <path
     d="m 76.3103,46.0998 v -20.14 h 3.5 v 5.47 l -0.34,-1.37 c 0.56,-1.39 1.49,-2.46 2.81,-3.19 1.32,-0.73 2.94,-1.1 4.86,-1.1 v 3.53 c -0.15,-0.02 -0.3,-0.04 -0.44,-0.04 h -0.4 c -1.95,0 -3.5,0.58 -4.64,1.75 -1.14,1.17 -1.71,2.85 -1.71,5.05 v 10.03 h -3.65 z"
     fill="#ffffff"
     id="path4" />
  <path
     d="m 101.01,45.2698 c -1.9496,0 -3.6896,-0.41 -5.2296,-1.23 -1.54,-0.82 -2.75,-1.97 -3.65,-3.44 -0.9,-1.47 -1.35,-3.17 -1.35,-5.09 0,-1.92 0.45,-3.65 1.35,-5.11 0.9,-1.46 2.12,-2.59 3.65,-3.4 1.53,-0.81 3.27,-1.22 5.2296,-1.22 1.72,0 3.29,0.35 4.71,1.04 1.42,0.7 2.55,1.77 3.4,3.21 0.85,1.44 1.27,3.27 1.27,5.47 0,2.2 -0.42,3.99 -1.27,5.43 -0.85,1.44 -1.98,2.53 -3.4,3.25 -1.42,0.72 -2.99,1.08 -4.71,1.08 z m 0.46,8.44 c -1.8496,0 -3.6396,-0.26 -5.3796,-0.78 -1.74,-0.52 -3.15,-1.26 -4.24,-2.22 l 1.75,-2.81 c 0.94,0.81 2.09,1.45 3.46,1.92 1.37,0.47 2.8,0.7 4.2896,0.7 2.38,0 4.13,-0.56 5.24,-1.67 1.11,-1.11 1.67,-2.81 1.67,-5.09 v -4.26 l 0.38,-3.99 -0.19,-4.03 v -5.51 h 3.46 v 17.4 c 0,3.55 -0.89,6.16 -2.66,7.83 -1.77,1.67 -4.37,2.51 -7.79,2.51 z m -0.04,-11.63 c 1.34,0 2.53,-0.28 3.57,-0.84 1.04,-0.56 1.86,-1.33 2.45,-2.32 0.6,-0.99 0.89,-2.13 0.89,-3.42 0,-1.29 -0.3,-2.43 -0.89,-3.42 -0.59,-0.99 -1.41,-1.75 -2.45,-2.3 -1.04,-0.54 -2.23,-0.82 -3.57,-0.82 -1.34,0 -2.5396,0.27 -3.5896,0.82 -1.05,0.54 -1.88,1.31 -2.47,2.3 -0.59,0.99 -0.89,2.13 -0.89,3.42 0,1.29 0.3,2.43 0.89,3.42 0.6,0.99 1.42,1.76 2.47,2.32 1.05,0.56 2.2496,0.84 3.5896,0.84 z"
     fill="#ffffff"
     id="path6" />
  <path
     d="m 6.0802999,14 c 0.25,0.5 0.76,0.82 1.32,0.82 0.56,0 1.07,-0.32 1.32,-0.82 L 14.6603,2.14 c 0.23,-0.46 0.2,-1 -0.07,-1.44 -0.27,-0.44 -0.75,-0.7 -1.26,-0.7 H 1.4802999 C 0.97030094,0 0.49030094,0.27 0.22030094,0.7 c -0.2700003,0.44 -0.2900003,0.98 -0.07,1.44 z M 10.9403,2.96 l -3.5300001,7.07 -3.53,-7.07 z M 7.4102999,43.48 c 1.97,0 3.8500001,-0.78 5.2400001,-2.17 1.39,-1.39 2.17,-3.28 2.17,-5.24 0,-1.96 -0.78,-3.85 -2.17,-5.24 -1.39,-1.39 -3.2800001,-2.17 -5.2400001,-2.17 -1.96,0 -3.85,0.78 -5.24,2.17 -1.38999896,1.39 -2.16999907345,3.28 -2.16999907345,5.24 0,1.96 0.78000011345,3.85 2.16999907345,5.24 1.39,1.39 3.27,2.17 5.24,2.17 z m 0,-11.86 c 1.18,0 2.31,0.47 3.1500001,1.3 0.83,0.83 1.3,1.97 1.3,3.15 0,1.18 -0.47,2.31 -1.3,3.15 -0.8300001,0.83 -1.9700001,1.3 -3.1500001,1.3 -1.18,0 -2.31,-0.47 -3.15,-1.3 -0.83,-0.83 -1.3,-1.97 -1.3,-3.15 0,-1.18 0.47,-2.31 1.3,-3.15 0.83,-0.83 1.97,-1.3 3.15,-1.3 z m -5.93,40.52 H 13.3403 c 0.82,0 1.48,-0.66 1.48,-1.48 V 58.8 c 0,-0.82 -0.66,-1.48 -1.48,-1.48 H 1.4802999 c -0.81999896,0 -1.47999907345,0.66 -1.47999907345,1.48 v 11.86 c 0,0.82 0.66000011345,1.48 1.47999907345,1.48 z m 1.48,-11.86 H 11.8603 v 8.9 H 2.9602999 Z M 26.6803,63.25 v -25.7 h -8.4 c -0.82,0 -1.48,-0.66 -1.48,-1.48 0,-0.82 0.66,-1.48 1.48,-1.48 h 8.4 V 8.89 h -8.4 c -0.82,0 -1.48,-0.66 -1.48,-1.48 0,-0.82 0.66,-1.48 1.48,-1.48 h 9.88 c 0.82,0 1.48,0.66 1.48,1.48 v 27.18 h 8.4 c 0.82,0 1.48,0.66 1.48,1.48 0,0.82 -0.66,1.48 -1.48,1.48 h -8.4 v 27.18 c 0,0.82 -0.66,1.48 -1.48,1.48 h -9.88 c -0.82,0 -1.48,-0.66 -1.48,-1.48 0,-0.82 0.66,-1.48 1.48,-1.48 z"
     fill="#ffffff"
     id="path8" />
</svg>
